app/images/dist/svg/truck.svg

<svg width="52" height="40" viewBox="0 0 52 40" fill="none" xmlns="http://www.w3.org/2000/svg">
<path d="M44.202 32.935C44.202 35.7952 42.4686 38.1353 40.3018 38.1353C38.1351 38.1353 36.4016 35.7952 36.4016 32.935C36.4016 30.0749 38.1351 27.7347 40.3018 27.7347C42.4686 27.7347 44.202 30.0749 44.202 32.935Z" fill="#FECC00"/>
<path d="M13.0878 32.935C13.0878 35.7952 11.3543 38.1353 9.18757 38.1353C7.02082 38.1353 5.28735 35.7952 5.28735 32.935C5.28735 30.0749 7.02082 27.7347 9.18757 27.7347C11.3543 27.7347 13.0878 30.0749 13.0878 32.935Z" fill="#FECC00"/>
<path d="M50.2691 16.4674H45.0688L37.875 8.49362C37.5283 8.06022 36.9216 7.80021 36.4015 7.80021H26.8676V3.37996C26.8676 1.99325 25.7409 0.866455 24.3541 0.866455H5.97994C4.59323 0.866455 3.46643 1.99315 3.46643 3.37996V22.5344H26.8677V32.935H36.4016C36.4016 30.0748 38.7418 27.7347 41.6019 27.7347C44.4621 27.7347 46.8022 30.0748 46.8022 32.935H50.009C50.6157 32.935 51.1357 32.4149 51.1357 31.8083V18.1142C51.1358 17.5941 50.6158 16.8141 50.2691 16.4674Z" fill="#FED100"/>
<path d="M27.7349 23.4013H0V3.38019C0 1.47345 1.47345 0 3.38019 0H24.4414C26.2615 0 27.7349 1.47345 27.7349 3.38019V23.4013ZM1.73346 21.6678H26.0014V3.38019C26.0014 2.51351 25.308 1.73346 24.3547 1.73346H3.38019C2.42677 1.73346 1.73346 2.42687 1.73346 3.38019V21.6678Z" fill="#333333"/>
<path d="M41.6019 39.0021C38.2217 39.0021 35.5349 36.3153 35.5349 32.9351C35.5349 29.5549 38.2217 26.8682 41.6019 26.8682C44.9821 26.8682 47.6689 29.5549 47.6689 32.9351C47.6689 36.3153 44.9821 39.0021 41.6019 39.0021ZM41.6019 28.6015C39.1751 28.6015 37.2683 30.5083 37.2683 32.9351C37.2683 35.362 39.175 37.2687 41.6019 37.2687C44.0287 37.2687 45.9355 35.362 45.9355 32.9351C45.9355 30.5083 44.0287 28.6015 41.6019 28.6015Z" fill="#333333"/>
<path d="M10.401 39.0021C7.02077 39.0021 4.33398 36.3153 4.33398 32.9351C4.33398 29.5549 7.02077 26.8682 10.401 26.8682C13.7811 26.8682 16.4679 29.5549 16.4679 32.9351C16.4679 36.3153 13.7811 39.0021 10.401 39.0021ZM10.401 28.6015C7.97419 28.6015 6.06735 30.5083 6.06735 32.9351C6.06735 35.362 7.97409 37.2687 10.401 37.2687C12.8278 37.2687 14.7346 35.362 14.7346 32.9351C14.7346 30.5083 12.8277 28.6015 10.401 28.6015Z" fill="#333333"/>
<path d="M50.7033 23.4013H35.9691C35.4491 23.4013 35.1024 23.0547 35.1024 22.5346C35.1024 22.0146 35.4491 21.668 35.9691 21.668H50.7033C51.2233 21.668 51.57 22.0146 51.57 22.5346C51.57 23.0546 51.2233 23.4013 50.7033 23.4013Z" fill="#333333"/>
<path d="M13.8674 15.6008H0.866681C0.346652 15.6008 0 15.2541 0 14.7341C0 14.2141 0.346652 13.8674 0.866681 13.8674H13.8674C14.3874 13.8674 14.7341 14.2141 14.7341 14.7341C14.7342 15.254 14.3874 15.6008 13.8674 15.6008Z" fill="#333333"/>
<path d="M10.4006 11.2671H0.866681C0.346652 11.2671 0 10.9204 0 10.4004C0 9.88034 0.346652 9.53369 0.866681 9.53369H10.4006C10.9206 9.53369 11.2673 9.88034 11.2673 10.4004C11.2673 10.9204 10.9206 11.2671 10.4006 11.2671Z" fill="#333333"/>
<path d="M49.2292 33.8019H45.9356V32.9353C45.9356 30.5085 44.0289 28.6017 41.602 28.6017C39.1752 28.6017 37.2684 30.5084 37.2684 32.9353V33.8019H26.0012V6.93372H36.6618C37.8753 6.93372 38.9153 7.45375 39.6954 8.40717L45.4157 15.6009L45.5023 15.6876H49.1425C50.7026 15.6876 51.916 16.9876 51.916 18.4611V31.0284C52.0027 32.5019 50.7026 33.8019 49.2292 33.8019ZM47.5824 32.0685H49.1425C49.7492 32.0685 50.1826 31.5485 50.1826 30.9418V18.4611C50.1826 17.8544 49.6625 17.421 49.1425 17.421H45.5023C44.8956 17.421 44.3756 17.161 44.0289 16.7276L38.3085 9.53386C37.9619 8.92719 37.3551 8.66718 36.6618 8.66718H27.7347V32.0685H35.6218C36.0552 29.1217 38.5686 26.8682 41.6021 26.8682C44.6356 26.8682 47.149 29.1217 47.5824 32.0685Z" fill="#333333"/>
<path d="M27.7349 33.802H14.7342V32.9353C14.7342 30.5086 12.8274 28.6017 10.4006 28.6017C7.97371 28.6017 6.06697 30.5085 6.06697 32.9353V33.802H2.60014C1.1267 33.802 0 32.6753 0 31.2019V21.668H27.7349V33.802ZM16.3809 32.0685H26.0014V23.4014H1.73346V31.2019C1.73346 31.7219 2.08012 32.0685 2.60014 32.0685H4.42025C4.85364 29.1218 7.36704 26.8683 10.4006 26.8683C13.4341 26.8683 15.9475 29.1218 16.3809 32.0685Z" fill="#333333"/>
<path d="M12.1336 32.935C12.1336 33.8884 11.3535 34.6685 10.4001 34.6685C9.44667 34.6685 8.66663 33.8884 8.66663 32.935C8.66663 31.9816 9.44667 31.2015 10.4001 31.2015C11.3535 31.2015 12.1336 31.9817 12.1336 32.935Z" fill="#333333"/>
<path d="M43.3359 32.935C43.3359 33.8884 42.5559 34.6685 41.6025 34.6685C40.6491 34.6685 39.869 33.8884 39.869 32.935C39.869 31.9816 40.6491 31.2015 41.6025 31.2015C42.5559 31.2016 43.3359 31.9817 43.3359 32.935Z" fill="#333333"/>
<path d="M44.8093 14.7341H33.542C32.242 14.7341 31.2019 13.6941 31.2019 12.394V6.93372H36.6622C37.8756 6.93372 38.9157 7.45375 39.6957 8.40717L44.8093 14.7341ZM32.9354 8.66718V12.394C32.9354 12.7407 33.1954 13.0007 33.542 13.0007H41.2558L38.3957 9.44712C37.9623 8.92709 37.3556 8.66708 36.6622 8.66708L32.9354 8.66718Z" fill="#333333"/>
</svg>

<svg width="52" height="40" fill="none" xmlns="http://www.w3.org/2000/svg"><path d="M44.202 32.935c0 2.86-1.733 5.2-3.9 5.2s-3.9-2.34-3.9-5.2c0-2.86 1.733-5.2 3.9-5.2s3.9 2.34 3.9 5.2zm-31.114 0c0 2.86-1.734 5.2-3.9 5.2-2.167 0-3.9-2.34-3.9-5.2 0-2.86 1.733-5.2 3.9-5.2 2.166 0 3.9 2.34 3.9 5.2z" fill="#FECC00"/><path d="M50.27 16.467h-5.201l-7.194-7.973c-.347-.434-.953-.694-1.474-.694h-9.533V3.38A2.515 2.515 0 0024.354.866H5.98A2.515 2.515 0 003.466 3.38v19.154h23.402v10.401h9.534c0-2.86 2.34-5.2 5.2-5.2 2.86 0 5.2 2.34 5.2 5.2h3.207c.607 0 1.127-.52 1.127-1.127V18.114c0-.52-.52-1.3-.867-1.647z" fill="#FED100"/><path d="M27.735 23.401H0V3.381C0 1.472 1.473 0 3.38 0h21.061c1.82 0 3.294 1.473 3.294 3.38v20.021zM1.733 21.668h24.268V3.38c0-.866-.693-1.647-1.646-1.647H3.38c-.953 0-1.647.694-1.647 1.647v18.288zm39.869 17.334a6.03 6.03 0 01-6.067-6.067 6.03 6.03 0 016.067-6.067 6.03 6.03 0 016.067 6.067 6.03 6.03 0 01-6.067 6.067zm0-10.4a4.292 4.292 0 00-4.334 4.333 4.291 4.291 0 004.334 4.334 4.291 4.291 0 004.334-4.334 4.292 4.292 0 00-4.334-4.334zm-31.201 10.4a6.03 6.03 0 01-6.067-6.067 6.03 6.03 0 016.067-6.067 6.03 6.03 0 016.067 6.067 6.03 6.03 0 01-6.067 6.067zm0-10.4a4.292 4.292 0 00-4.334 4.333 4.291 4.291 0 004.334 4.334 4.291 4.291 0 004.334-4.334 4.292 4.292 0 00-4.334-4.334zm40.302-5.201H35.97c-.52 0-.867-.346-.867-.866s.347-.867.867-.867h14.734c.52 0 .867.347.867.867s-.347.866-.867.866z" fill="#333"/><path d="M13.867 15.6h-13c-.52 0-.867-.346-.867-.866s.347-.867.867-.867h13c.52 0 .867.347.867.867s-.347.867-.867.867zM10.4 11.267H.868c-.52 0-.867-.347-.867-.867s.347-.866.867-.866H10.4c.52 0 .866.346.866.866s-.346.867-.866.867zm38.83 22.535h-3.294v-.867a4.291 4.291 0 00-4.334-4.333 4.291 4.291 0 00-4.334 4.333v.867H26.001V6.934h10.66c1.214 0 2.254.52 3.034 1.473l5.72 7.194.087.087h3.64c1.56 0 2.774 1.3 2.774 2.773v12.567c.087 1.474-1.213 2.774-2.687 2.774zm-1.648-1.733h1.56c.607 0 1.04-.52 1.04-1.127v-12.48c0-.608-.52-1.041-1.04-1.041h-3.64c-.606 0-1.126-.26-1.473-.693l-5.72-7.194c-.347-.607-.954-.867-1.647-.867h-8.927v23.401h7.887c.433-2.946 2.947-5.2 5.98-5.2 3.034 0 5.547 2.254 5.98 5.2z" fill="#333"/><path d="M27.735 33.802h-13v-.867a4.292 4.292 0 00-4.334-4.333 4.291 4.291 0 00-4.334 4.333v.867H2.6c-1.473 0-2.6-1.127-2.6-2.6v-9.534h27.735v12.134zM16.38 32.069H26V23.4H1.733v7.8c0 .52.347.867.867.867h1.82c.434-2.946 2.947-5.2 5.98-5.2 3.034 0 5.547 2.254 5.98 5.2z" fill="#333"/><path d="M12.134 32.935c0 .953-.78 1.733-1.734 1.733-.953 0-1.733-.78-1.733-1.733 0-.953.78-1.734 1.733-1.734.954 0 1.734.78 1.734 1.734zm31.202 0c0 .953-.78 1.733-1.733 1.733-.954 0-1.734-.78-1.734-1.733 0-.953.78-1.734 1.733-1.734.954 0 1.734.78 1.734 1.734zm1.474-18.201H33.541a2.33 2.33 0 01-2.34-2.34v-5.46h5.46c1.214 0 2.254.52 3.034 1.473l5.113 6.327zM32.934 8.667v3.727c0 .347.26.607.607.607h7.714l-2.86-3.554c-.434-.52-1.04-.78-1.734-.78h-3.727z" fill="#333"/></svg>
